src/qt/pivx/res/img/img-empty-dark-transactions.svg

<?xml version="1.0"?>
<svg width="100" height="100" xmlns="http://www.w3.org/2000/svg" xmlns:svg="http://www.w3.org/2000/svg" xmlns:se="http://svg-edit.googlecode.com">
 <defs>
  <style type="text/css">.cls-1{fill:#1e3c12}.cls-2{fill:#a09ea5}.cls-3{fill:none}</style>
 </defs>
 <g class="layer">
  <title>Layer 1</title>
  <path class="cls-1" d="m50,26a24,24 0 1 0 24,24a24,24 0 0 0 -24,-24zm0,42a18,18 0 1 1 18,-18a18,18 0 0 1 -18,18z" data-name="Path 18988" id="Path_18988"/>
  <g data-name="Group 9034" id="Group_9034">
   <path class="cls-2" d="m50,31a19,19 0 1 0 19,19a19.021,19.021 0 0 0 -19,-19zm0,36a17,17 0 1 1 17,-17a17.019,17.019 0 0 1 -17,17z" data-name="Path 18990" id="Path_18990"/>
   <path class="cls-2" d="m0,0l2,0l0,4l-2,0l0,-4z" data-name="Rectangle 4693" id="Rectangle_4693" transform="translate(83 56)"/>
   <path class="cls-2" d="m0,0l2,0l0,8l-2,0l0,-8z" data-name="Rectangle 4694" id="Rectangle_4694" transform="translate(83 44)"/>
   <path class="cls-2" d="m0,0l2,0l0,8l-2,0l0,-8z" data-name="Rectangle 4695" id="Rectangle_4695" transform="translate(15 48)"/>
   <path class="cls-2" d="m0,0l2,0l0,4l-2,0l0,-4z" data-name="Rectangle 4696" id="Rectangle_4696" transform="translate(15 40)"/>
   <path class="cls-2" d="m95.162,71l-10.162,0l0,-7l-2,0l0,9l7.838,0l-14.838,17.456l-14.838,-17.456l6.838,0l0,-2l-4.461,0a24.989,24.989 0 0 0 -22.4,-44.374l-17.139,-20.17l-19.162,22.544l10.162,0l0,7l2,0l0,-9l-7.838,0l14.838,-17.456l14.838,17.456l-6.838,0l0,2l4.461,0a24.989,24.989 0 0 0 22.4,44.374l17.139,20.17l19.162,-22.544zm-68.162,-21a23,23 0 1 1 23,23a23.026,23.026 0 0 1 -23,-23z" data-name="Path 18991" id="Path_18991"/>
  </g>
  <path class="cls-3" d="m0,0l100,0l0,100l-100,0l0,-100z" data-name="Rectangle 4697" id="Rectangle_4697"/>
 </g>
</svg>

<svg xmlns="http://www.w3.org/2000/svg" id="ic_empty_Dark_transactions" width="100" height="100" viewBox="0 0 100 100">
    <defs>
        <style type="text/css">
            .cls-1{fill:#413d4a}.cls-2{fill:#a09ea5}.cls-3{fill:none}
        </style>
    </defs>
    <g id="Group_9036" data-name="Group 9036">
        <path id="Path_18988" d="M50 26a24 24 0 1 0 24 24 24 24 0 0 0-24-24zm0 42a18 18 0 1 1 18-18 18 18 0 0 1-18 18z" class="cls-1" data-name="Path 18988"/>
        <g id="Group_9035" data-name="Group 9035">
            <g id="Group_9033" data-name="Group 9033">
                <g id="Group_9032" data-name="Group 9032">
                    <path id="Rectangle_4692" d="M0 0h9.582v1.993H0z" class="cls-2" data-name="Rectangle 4692" transform="translate(41.529 44.03)"/>
                    <path id="Path_18989" d="M60.215 44.967a7.421 7.421 0 0 1-7.829 7.774h-6.3v9.965H43.6V50.488h8.447c3.387 0 5.6-2.053 5.6-5.521 0-3.428-2.211-5.421-5.558-5.421h-2.63l-6.3.02v-2.272h9.2c4.562 0 7.849 2.95 7.849 7.673" class="cls-2" data-name="Path 18989"/>
                </g>
            </g>
            <g id="Group_9034" data-name="Group 9034">
                <path id="Path_18990" d="M50 31a19 19 0 1 0 19 19 19.021 19.021 0 0 0-19-19zm0 36a17 17 0 1 1 17-17 17.019 17.019 0 0 1-17 17z" class="cls-2" data-name="Path 18990"/>
                <path id="Rectangle_4693" d="M0 0h2v4H0z" class="cls-2" data-name="Rectangle 4693" transform="translate(83 56)"/>
                <path id="Rectangle_4694" d="M0 0h2v8H0z" class="cls-2" data-name="Rectangle 4694" transform="translate(83 44)"/>
                <path id="Rectangle_4695" d="M0 0h2v8H0z" class="cls-2" data-name="Rectangle 4695" transform="translate(15 48)"/>
                <path id="Rectangle_4696" d="M0 0h2v4H0z" class="cls-2" data-name="Rectangle 4696" transform="translate(15 40)"/>
                <path id="Path_18991" d="M95.162 71H85v-7h-2v9h7.838L76 90.456 61.162 73H68v-2h-4.461a24.989 24.989 0 0 0-22.4-44.374L24 6.456 4.838 29H15v7h2v-9H9.162L24 9.544 38.838 27H32v2h4.461a24.989 24.989 0 0 0 22.4 44.374L76 93.544zM27 50a23 23 0 1 1 23 23 23.026 23.026 0 0 1-23-23z" class="cls-2" data-name="Path 18991"/>
            </g>
        </g>
    </g>
    <path id="Rectangle_4697" d="M0 0h100v100H0z" class="cls-3" data-name="Rectangle 4697"/>
</svg>
